img/icon4.svg

<svg width="76" height="63" viewBox="0 0 76 63" fill="none" xmlns="http://www.w3.org/2000/svg">
<rect width="76" height="63" fill="white"/>
<path d="M34.8036 18.92H27.8196V26H24.6516V9.248H27.8196V16.112H34.8036V9.248H37.9716V26H34.8036V18.92ZM46.7736 26.288C45.8456 26.288 45.0136 26.136 44.2776 25.832C43.5576 25.512 42.9416 25.072 42.4296 24.512C41.9336 23.936 41.5496 23.248 41.2776 22.448C41.0056 21.632 40.8696 20.72 40.8696 19.712C40.8696 18.72 40.9976 17.824 41.2536 17.024C41.5256 16.224 41.9096 15.544 42.4056 14.984C42.9016 14.408 43.5096 13.968 44.2296 13.664C44.9496 13.344 45.7656 13.184 46.6776 13.184C47.6536 13.184 48.5016 13.352 49.2216 13.688C49.9416 14.024 50.5336 14.48 50.9976 15.056C51.4616 15.632 51.8056 16.304 52.0296 17.072C52.2696 17.824 52.3896 18.632 52.3896 19.496V20.504H44.0616V20.816C44.0616 21.728 44.3176 22.464 44.8296 23.024C45.3416 23.568 46.1016 23.84 47.1096 23.84C47.8776 23.84 48.5016 23.68 48.9816 23.36C49.4776 23.04 49.9176 22.632 50.3016 22.136L51.9576 23.984C51.4456 24.704 50.7416 25.272 49.8456 25.688C48.9656 26.088 47.9416 26.288 46.7736 26.288ZM46.7256 15.488C45.9096 15.488 45.2616 15.76 44.7816 16.304C44.3016 16.848 44.0616 17.552 44.0616 18.416V18.608H49.1976V18.392C49.1976 17.528 48.9816 16.832 48.5496 16.304C48.1336 15.76 47.5256 15.488 46.7256 15.488ZM26.6707 38.976H26.5747L25.2787 41.64L21.8467 47.976L18.4147 41.64L17.1187 38.976H17.0227V51H14.0227V34.248H17.5987L21.8947 42.432H21.9907L26.2387 34.248H29.6707V51H26.6707V38.976ZM40.1204 51.288C39.0164 51.288 38.0164 51.112 37.1204 50.76C36.2404 50.392 35.4804 49.848 34.8404 49.128C34.2164 48.408 33.7364 47.52 33.4004 46.464C33.0644 45.392 32.8964 44.152 32.8964 42.744C32.8964 41.336 33.0644 40.088 33.4004 39C33.7364 37.896 34.2164 36.976 34.8404 36.24C35.4804 35.488 36.2404 34.92 37.1204 34.536C38.0164 34.152 39.0164 33.96 40.1204 33.96C41.6244 33.96 42.8724 34.28 43.8644 34.92C44.8564 35.56 45.6484 36.528 46.2404 37.824L43.5284 39.264C43.2884 38.512 42.8964 37.912 42.3524 37.464C41.8084 37 41.0644 36.768 40.1204 36.768C38.9364 36.768 37.9924 37.168 37.2884 37.968C36.6004 38.768 36.2564 39.888 36.2564 41.328V43.968C36.2564 45.424 36.6004 46.544 37.2884 47.328C37.9924 48.096 38.9364 48.48 40.1204 48.48C41.0644 48.48 41.8324 48.224 42.4244 47.712C43.0324 47.2 43.4724 46.568 43.7444 45.816L46.3124 47.328C45.7044 48.576 44.8964 49.552 43.8884 50.256C42.8804 50.944 41.6244 51.288 40.1204 51.288ZM49.0149 34.248H61.9749V51H58.8069V37.056H52.1829V51H49.0149V34.248Z" fill="#000105"/>
<path d="M75 1H1V62H75V1Z" stroke="black" stroke-width="2"/>
</svg>

<svg width="76" height="63" fill="none" xmlns="http://www.w3.org/2000/svg"><path fill="#fff" d="M0 0h76v63H0z"/><path d="M34.804 18.92H27.82V26h-3.168V9.248h3.168v6.864h6.984V9.248h3.168V26h-3.168v-7.08zm11.97 7.368c-.928 0-1.76-.152-2.496-.456a5.496 5.496 0 01-1.848-1.32c-.496-.576-.88-1.264-1.152-2.064-.272-.816-.408-1.728-.408-2.736 0-.992.128-1.888.384-2.688.272-.8.656-1.48 1.152-2.04a4.87 4.87 0 011.824-1.32c.72-.32 1.536-.48 2.448-.48.976 0 1.824.168 2.544.504a4.9 4.9 0 011.776 1.368 5.732 5.732 0 011.032 2.016c.24.752.36 1.56.36 2.424v1.008h-8.328v.312c0 .912.256 1.648.768 2.208.512.544 1.272.816 2.28.816.768 0 1.392-.16 1.872-.48.496-.32.936-.728 1.32-1.224l1.656 1.848c-.512.72-1.216 1.288-2.112 1.704-.88.4-1.904.6-3.072.6zm-.048-10.8c-.816 0-1.464.272-1.944.816-.48.544-.72 1.248-.72 2.112v.192h5.136v-.216c0-.864-.216-1.56-.648-2.088-.416-.544-1.024-.816-1.824-.816zM26.67 38.976h-.096l-1.296 2.664-3.432 6.336-3.432-6.336-1.296-2.664h-.096V51h-3V34.248h3.576l4.296 8.184h.096l4.248-8.184h3.432V51h-3V38.976zm13.45 12.312c-1.105 0-2.105-.176-3-.528a6.233 6.233 0 01-2.28-1.632c-.625-.72-1.105-1.608-1.44-2.664-.337-1.072-.505-2.312-.505-3.72 0-1.408.168-2.656.504-3.744.336-1.104.816-2.024 1.44-2.76.64-.752 1.4-1.32 2.28-1.704.896-.384 1.896-.576 3-.576 1.504 0 2.752.32 3.744.96.992.64 1.784 1.608 2.376 2.904l-2.712 1.44c-.24-.752-.632-1.352-1.176-1.8-.544-.464-1.288-.696-2.232-.696-1.184 0-2.128.4-2.832 1.2-.688.8-1.032 1.92-1.032 3.36v2.64c0 1.456.344 2.576 1.032 3.36.704.768 1.648 1.152 2.832 1.152.944 0 1.712-.256 2.304-.768a4.386 4.386 0 001.32-1.896l2.568 1.512c-.608 1.248-1.416 2.224-2.424 2.928-1.008.688-2.264 1.032-3.768 1.032zm8.894-17.04h12.96V51h-3.168V37.056h-6.624V51h-3.168V34.248z" fill="#000105"/><path d="M75 1H1v61h74V1z" stroke="#000" stroke-width="2"/></svg>
